; HEADER_BLOCK_START
; generated by Creality_Print V7.1.1.4472 on 2026-07-05 at 17:19:59
; total layer number: 179
; filament_density: 1.24
; filament_diameter: 1.75
; max_z_height: 25.00
; creality_uuid: b2b42e24-5b99-4187-acb2-c8ac234ed436
; HEADER_BLOCK_END

; MINX = 79.79
; MINY = 101.46
; MINZ = 0.00
; MAXX = 242.74
; MAXY = 200.01
; MAXZ = 25.00

; multicolor_method = 0 
; THUMBNAIL_BLOCK_START

;
; THUMBNAIL_BLOCK_END

; THUMBNAIL_BLOCK_START

;
; THUMBNAIL_BLOCK_END

; external perimeters extrusion width = 0.42mm
; perimeters extrusion width = 0.45mm
; infill extrusion width = 0.45mm
; solid infill extrusion width = 0.42mm
; top infill extrusion width = 0.42mm
; support material extrusion width = 0.42mm
; first layer extrusion width = 0.55mm

; external perimeters extrusion width = 0.42mm
; perimeters extrusion width = 0.45mm
; infill extrusion width = 0.45mm
; solid infill extrusion width = 0.42mm
; top infill extrusion width = 0.42mm
; support material extrusion width = 0.42mm
; first layer extrusion width = 0.55mm

; EXECUTABLE_BLOCK_START
EXCLUDE_OBJECT_DEFINE NAME=Body1.stl_id_0_copy_0 CENTER=118.145,150.986 POLYGON=[[79.7885,101.958],[156.501,101.958],[156.501,200.015],[79.7885,200.015],[79.7885,101.958]]
EXCLUDE_OBJECT_DEFINE NAME=lid.stl_id_1_copy_0 CENTER=204.387,150.487 POLYGON=[[166.031,101.459],[242.744,101.459],[242.744,199.515],[166.031,199.515],[166.031,101.459]]
M73 P0 R80
M106 S0
M106 P2 S0
; max_print_temp = 65,220
;TYPE:Custom
M140 S0
M104 S0
START_PRINT EXTRUDER_TEMP=220 BED_TEMP=65
G90
G21
M83 ; use relative distances for extrusion
;filament start gcode
G1 E-.6 F2400
G1 Z.2 F30000
M106 S0
;LAYER_CHANGE
;:0.2
;HEIGHT:0.2
;BEFORE_LAYER_CHANGE
;0.2
G92 E0
;TIME_ELAPSED:54.939693
;AFTER_LAYER_CHANGE
;0.2
;_SET_FAN_SPEED_CHANGING_LAYER
SET_VELOCITY_LIMIT ACCEL=2000 ACCEL_TO_DECEL=500
SET_VELOCITY_LIMIT SQUARE_CORNER_VELOCITY=8
; OBJECT_ID: 154
; printing object Body1.stl id:0 copy 0
EXCLUDE_OBJECT_START NAME=Body1.stl_id_0_copy_0
G1 X145.952 Y204.687 Z.4 F30000
M73 P0 R79
G1 Z.2
G1 E.6 F2400
;TYPE:Support
;WIDTH:0.55
G1 F3600
G1 X107.6 Y204.687 E1.55238
G1 X107.6 Y200.49 E.1699
G1 X145.952 Y200.49 E1.55238
G1 X145.952 Y204.611 E.16682
G1 X139.245 Y204.231 F30000
G1 F3600
G1 X139.555 Y204.231 E.01254
G1 X139.555 Y200.946 E.13296
G1 X140.118 Y200.946 E.02281
G1 X140.118 Y204.231 E.13296
G1 X140.682 Y204.231 E.02281
G1 X140.682 Y200.946 E.13296
G1 X141.245 Y200.946 E.02281
G1 X141.245 Y204.231 E.13296
G1 X141.809 Y204.231 E.02281
G1 X141.809 Y200.946 E.13296
G1 X142.372 Y200.946 E.02281
G1 X142.372 Y204.231 E.13296
G1 X142.935 Y204.231 E.02281
G1 X142.935 Y200.946 E.13296
G1 X143.499 Y200.946 E.02281
G1 X143.499 Y204.231 E.13296
G1 X144.062 Y204.231 E.02281
G1 X144.062 Y200.946 E.13296
G1 X144.626 Y200.946 E.02281
G1 X144.626 Y204.231 E.13296
G1 X145.189 Y204.231 E.02281
G1 X145.189 Y200.946 E.13296
G1 X145.496 Y200.946 E.01241
G1 X145.496 Y201.542 E.02414
G1 X137.555 Y204.231 F30000
G1 F3600
G1 X137.865 Y204.231 E.01254
G1 X137.865 Y200.946 E.13296
G1 X138.428 Y200.946 E.02281
G1 X138.428 Y204.231 E.13296
G1 X138.991 Y204.231 E.02281
G1 X138.991 Y200.946 E.13296
G1 X139.301 Y200.946 E.01254
G1 X126.85 Y204.231 F30000
G1 F3600
G1 X127.16 Y204.231 E.01254
G1 X127.16 Y200.946 E.13296
G1 X127.723 Y200.946 E.02281
G1 X127.723 Y204.231 E.13296
G1 X128.286 Y204.231 E.02281
G1 X128.286 Y200.946 E.13296
G1 X128.85 Y200.946 E.02281
G1 X128.85 Y204.231 E.13296
G1 X129.413 Y204.231 E.02281
G1 X129.413 Y200.946 E.13296
G1 X129.977 Y200.946 E.02281
G1 X129.977 Y204.231 E.13296
G1 X130.54 Y204.231 E.02281
G1 X130.54 Y200.946 E.13296
G1 X131.104 Y200.946 E.02281
G1 X131.104 Y204.231 E.13296
G1 X131.667 Y204.231 E.02281
G1 X131.667 Y200.946 E.13296
G1 X132.23 Y200.946 E.02281
G1 X132.23 Y204.231 E.13296
G1 X132.794 Y204.231 E.02281
G1 X132.794 Y200.946 E.13296
G1 X133.357 Y200.946 E.02281
G1 X133.357 Y204.231 E.13296
G1 X133.921 Y204.231 E.02281
G1 X133.921 Y200.946 E.13296
G1 X134.484 Y200.946 E.02281
G1 X134.484 Y204.231 E.13296
G1 X135.047 Y204.231 E.02281
G1 X135.047 Y200.946 E.13296
G1 X135.611 Y200.946 E.02281
G1 X135.611 Y204.231 E.13296
G1 X136.174 Y204.231 E.02281
G1 X136.174 Y200.946 E.13296
G1 X136.738 Y200.946 E.02281
G1 X136.738 Y204.231 E.13296
G1 X137.301 Y204.231 E.02281
G1 X137.301 Y200.946 E.13296
G1 X137.611 Y200.946 E.01254
G1 X124.033 Y204.231 F30000
G1 F3600
G1 X124.342 Y204.231 E.01254
G1 X124.342 Y200.946 E.13296
G1 X124.906 Y200.946 E.02281
G1 X124.906 Y204.231 E.13296
G1 X125.469 Y204.231 E.02281
G1 X125.469 Y200.946 E.13296
G1 X126.033 Y200.946 E.02281
G1 X126.033 Y204.231 E.13296
G1 X126.596 Y204.231 E.02281
G1 X126.596 Y200.946 E.13296
G1 X126.906 Y200.946 E.01254
G1 X114.454 Y204.231 F30000
G1 F3600
G1 X114.764 Y204.231 E.01254
G1 X114.764 Y200.946 E.13296
G1 X115.328 Y200.946 E.02281
G1 X115.328 Y204.231 E.13296
G1 X115.891 Y204.231 E.02281
G1 X115.891 Y200.946 E.13296
G1 X116.455 Y200.946 E.02281
G1 X116.455 Y204.231 E.13296
G1 X117.018 Y204.231 E.02281
G1 X117.018 Y200.946 E.13296
G1 X117.581 Y200.946 E.02281
G1 X117.581 Y204.231 E.13296
G1 X118.145 Y204.231 E.02281
G1 X118.145 Y200.946 E.13296
G1 X118.708 Y200.946 E.02281
G1 X118.708 Y204.231 E.13296
G1 X119.272 Y204.231 E.02281
G1 X119.272 Y200.946 E.13296
G1 X119.835 Y200.946 E.02281
G1 X119.835 Y204.231 E.13296
G1 X120.399 Y204.231 E.02281
G1 X120.399 Y200.946 E.13296
G1 X120.962 Y200.946 E.02281
G1 X120.962 Y204.231 E.13296
G1 X121.525 Y204.231 E.02281
G1 X121.525 Y200.946 E.13296
G1 X122.089 Y200.946 E.02281
G1 X122.089 Y204.231 E.13296
G1 X122.652 Y204.231 E.02281
G1 X122.652 Y200.946 E.13296
G1 X123.216 Y200.946 E.02281
G1 X123.216 Y204.231 E.13296
G1 X123.779 Y204.231 E.02281
G1 X123.779 Y200.946 E.13296
G1 X124.089 Y200.946 E.01254
G1 X108.313 Y200.946 F30000
G1 F3600
G1 X108.057 Y200.946 E.01039
G1 X108.057 Y204.231 E.13296
G1 X108.567 Y204.231 E.02065
G1 X108.567 Y200.946 E.13296
G1 X109.13 Y200.946 E.02281
G1 X109.13 Y204.231 E.13296
G1 X109.694 Y204.231 E.02281
G1 X109.694 Y200.946 E.13296
G1 X110.257 Y200.946 E.02281
G1 X110.257 Y204.231 E.13296
G1 X110.82 Y204.231 E.02281
G1 X110.82 Y200.946 E.13296
G1 X111.384 Y200.946 E.02281
G1 X111.384 Y204.231 E.13296
G1 X111.947 Y204.231 E.02281
G1 X111.947 Y200.946 E.13296
G1 X112.511 Y200.946 E.02281
G1 X112.511 Y204.231 E.13296
G1 X113.074 Y204.231 E.02281
G1 X113.074 Y200.946 E.13296
G1 X113.637 Y200.946 E.02281
G1 X113.637 Y204.231 E.13296
G1 X114.201 Y204.231 E.02281
G1 X114.201 Y200.946 E.13296
G1 X114.511 Y200.946 E.01254
;WIPE_START
G1 X114.201 Y200.946 E-.08832
G1 X114.201 Y202.636 E-.48168
;WIPE_END
G1 E-.03 F2400
G1 X117.994 Y202.212 Z.4 F30000
G1 X154.609 Y198.122 Z.4
G1 Z.2
G1 E.6 F2400
;TYPE:Inner wall
;WIDTH:0.549999
G1 F3600
G1 X81.681 Y198.122 E2.9519
G1 X81.681 Y103.851 E3.81584
G1 X154.609 Y103.851 E2.9519
G1 X154.609 Y198.082 E3.81423
G1 X155.116 Y198.629 F30000
G1 F3600
G1 X81.174 Y198.629 E2.99295
G1 X81.174 Y103.344 E3.8569
G1 X155.116 Y103.344 E2.99295
G1 X155.116 Y198.589 E3.85528
G1 X155.623 Y199.136 F30000
G1 F3600
G1 X80.667 Y199.136 E3.034
G1 X80.667 Y102.836 E3.89795
G1 X155.623 Y102.836 E3.034
G1 X155.623 Y199.096 E3.89633
G1 X156.151 Y199.665 F30000
;TYPE:Outer wall
G1 F3600
G1 X80.138 Y199.665 E3.07679
G1 X80.138 Y102.308 E3.94073
G1 X156.151 Y102.308 E3.07679
G1 X156.151 Y199.625 E3.93911
;WIPE_START
G1 X154.151 Y199.626 E-.57
;WIPE_END
G1 E-.03 F2400
G1 X154.164 Y195.809 Z.4 F30000
G1 X154.456 Y105.03 Z.4
G1 Z.2
G1 E.6 F2400
;TYPE:Bottom surface
;WIDTH:0.550975
G1 F6300
G1 X153.657 Y104.231 E.04582
G1 X152.939 Y104.231 E.02914
G1 X154.228 Y105.52 E.07394
G1 X154.228 Y106.239 E.02914
G1 X152.22 Y104.231 E.11515
G1 X151.502 Y104.231 E.02914
G1 X154.228 Y106.957 E.15636
G1 X154.228 Y107.676 E.02914
G1 X150.783 Y104.231 E.19757
G1 X150.065 Y104.231 E.02914
G1 X154.228 Y108.394 E.23878
G1 X154.228 Y109.113 E.02914
G1 X149.346 Y104.231 E.27998
G1 X148.628 Y104.231 E.02914
G1 X154.228 Y109.831 E.32119
G1 X154.228 Y110.55 E.02914
G1 X147.909 Y104.231 E.3624
G1 X147.191 Y104.231 E.02914
G1 X154.228 Y111.268 E.40361
G1 X154.228 Y111.987 E.02914
G1 X146.472 Y104.231 E.44482
G1 X145.754 Y104.231 E.02914
G1 X154.228 Y112.705 E.48603
G1 X154.228 Y113.424 E.02914
G1 X145.036 Y104.231 E.52724
G1 X144.317 Y104.231 E.02914
G1 X154.228 Y114.142 E.56844
G1 X154.228 Y114.861 E.02914
G1 X143.599 Y104.231 E.60965
G1 X142.88 Y104.231 E.02914
G1 X154.228 Y115.579 E.65086
G1 X154.228 Y116.298 E.02914
G1 X142.162 Y104.231 E.69207
G1 X141.443 Y104.231 E.02914
G1 X154.228 Y117.016 E.73328
G1 X154.228 Y117.735 E.02914
G1 X140.725 Y104.231 E.77449
G1 X140.006 Y104.231 E.02914
G1 X154.228 Y118.453 E.8157
G1 X154.228 Y119.172 E.02914
G1 X139.288 Y104.231 E.8569
G1 X138.569 Y104.231 E.02914
G1 X154.228 Y119.89 E.89811
G1 X154.228 Y120.609 E.02914
G1 X137.851 Y104.231 E.93932
G1 X137.132 Y104.231 E.02914
G1 X154.228 Y121.327 E.98053
G1 X154.228 Y122.046 E.02914
G1 X136.414 Y104.231 E1.02174
G1 X135.695 Y104.231 E.02914
G1 X154.228 Y122.764 E1.06295
G1 X154.228 Y123.483 E.02914
G1 X134.977 Y104.231 E1.10415
G1 X134.258 Y104.231 E.02914
G1 X154.228 Y124.201 E1.14536
G1 X154.228 Y124.92 E.02914
G1 X133.54 Y104.231 E1.18657
G1 X132.821 Y104.231 E.02914
G1 X154.228 Y125.638 E1.22778
G1 X154.228 Y126.357 E.02914
G1 X132.103 Y104.231 E1.26899
G1 X131.384 Y104.231 E.02914
G1 X154.228 Y127.075 E1.3102
G1 X154.228 Y127.794 E.02914
G1 X130.666 Y104.231 E1.35141
G1 X129.947 Y104.231 E.02914
G1 X154.228 Y128.512 E1.39261
G1 X154.228 Y129.231 E.02914
G1 X129.229 Y104.231 E1.43382
G1 X128.51 Y104.231 E.02914
G1 X154.228 Y129.949 E1.47503
G1 X154.228 Y130.668 E.02914
G1 X127.792 Y104.231 E1.51624
G1 X127.073 Y104.231 E.02914
G1 X154.228 Y131.386 E1.55745
G1 X154.228 Y132.105 E.02914
G1 X126.355 Y104.231 E1.59866
M73 P1 R79
G1 X125.636 Y104.231 E.02914
G1 X154.228 Y132.823 E1.63986
G1 X154.228 Y133.542 E.02914
G1 X124.918 Y104.231 E1.68107
G1 X124.199 Y104.231 E.02914
G1 X154.228 Y134.26 E1.72228
G1 X154.228 Y134.979 E.02914
G1 X123.481 Y104.231 E1.76349
G1 X122.762 Y104.231 E.02914
G1 X154.228 Y135.697 E1.8047
G1 X154.228 Y136.416 E.02914
G1 X122.044 Y104.231 E1.84591
G1 X121.325 Y104.231 E.02914
G1 X154.228 Y137.134 E1.88712
G1 X154.228 Y137.853 E.02914
G1 X120.607 Y104.231 E1.92832
G1 X119.888 Y104.231 E.02914
G1 X154.228 Y138.571 E1.96953
G1 X154.228 Y139.29 E.02914
G1 X119.17 Y104.231 E2.01074
G1 X118.451 Y104.231 E.02914
G1 X154.228 Y140.008 E2.05195
G1 X154.228 Y140.727 E.02914
G1 X117.733 Y104.231 E2.09316
G1 X117.014 Y104.231 E.02914
G1 X154.228 Y141.445 E2.13437
G1 X154.228 Y142.164 E.02914
G1 X116.296 Y104.231 E2.17558
G1 X115.577 Y104.231 E.02914
G1 X154.228 Y142.882 E2.21678
G1 X154.228 Y143.601 E.02914
G1 X114.859 Y104.231 E2.25799
G1 X114.14 Y104.231 E.02914
G1 X154.228 Y144.319 E2.2992
G1 X154.228 Y145.038 E.02914
G1 X113.422 Y104.231 E2.34041
G1 X112.703 Y104.231 E.02914
G1 X154.228 Y145.756 E2.38162
G1 X154.228 Y146.475 E.02914
G1 X111.985 Y104.231 E2.42283
G1 X111.266 Y104.231 E.02914
G1 X154.228 Y147.193 E2.46403
G1 X154.228 Y147.912 E.02914
G1 X110.548 Y104.231 E2.50524
M73 P1 R78
G1 X109.829 Y104.231 E.02914
G1 X154.228 Y148.63 E2.54645
G1 X154.228 Y149.349 E.02914
G1 X109.111 Y104.231 E2.58766
G1 X108.392 Y104.231 E.02914
G1 X154.228 Y150.067 E2.62887
G1 X154.228 Y150.786 E.02914
G1 X107.674 Y104.231 E2.67008
G1 X106.955 Y104.231 E.02914
G1 X154.228 Y151.504 E2.71129
G1 X154.228 Y152.223 E.02914
G1 X106.237 Y104.231 E2.75249
G1 X105.518 Y104.231 E.02914
G1 X154.228 Y152.941 E2.7937
G1 X154.228 Y153.659 E.02914
G1 X104.8 Y104.231 E2.83491
G1 X104.081 Y104.231 E.02914
G1 X154.228 Y154.378 E2.87612
G1 X154.228 Y155.096 E.02914
G1 X103.363 Y104.231 E2.91733
G1 X102.644 Y104.231 E.02914
G1 X154.228 Y155.815 E2.95854
G1 X154.228 Y156.533 E.02914
G1 X101.926 Y104.231 E2.99975
G1 X101.207 Y104.231 E.02914
G1 X154.228 Y157.252 E3.04095
G1 X154.228 Y157.97 E.02914
G1 X100.489 Y104.231 E3.08216
G1 X99.77 Y104.231 E.02914
G1 X154.228 Y158.689 E3.12337
G1 X154.228 Y159.407 E.02914
G1 X99.052 Y104.231 E3.16458
G1 X98.333 Y104.231 E.02914
G1 X154.228 Y160.126 E3.20579
G1 X154.228 Y160.844 E.02914
G1 X97.615 Y104.231 E3.247
G1 X96.896 Y104.231 E.02914
G1 X154.228 Y161.563 E3.2882
G1 X154.228 Y162.281 E.02914
G1 X96.178 Y104.231 E3.32941
G1 X95.459 Y104.231 E.02914
G1 X154.228 Y163 E3.37062
G1 X154.228 Y163.718 E.02914
G1 X94.741 Y104.231 E3.41183
G1 X94.022 Y104.231 E.02914
G1 X154.228 Y164.437 E3.45304
G1 X154.228 Y165.155 E.02914
G1 X93.304 Y104.231 E3.49425
G1 X92.585 Y104.231 E.02914
G1 X154.228 Y165.874 E3.53546
G1 X154.228 Y166.592 E.02914
G1 X91.867 Y104.231 E3.57666
G1 X91.148 Y104.231 E.02914
G1 X154.228 Y167.311 E3.61787
G1 X154.228 Y168.029 E.02914
G1 X90.43 Y104.231 E3.65908
G1 X89.711 Y104.231 E.02914
G1 X154.228 Y168.748 E3.70029
G1 X154.228 Y169.466 E.02914
G1 X88.993 Y104.231 E3.7415
G1 X88.274 Y104.231 E.02914
G1 X154.228 Y170.185 E3.78271
G1 X154.228 Y170.903 E.02914
G1 X87.556 Y104.231 E3.82391
G1 X86.837 Y104.231 E.02914
G1 X154.228 Y171.622 E3.86512
G1 X154.228 Y172.34 E.02914
G1 X86.119 Y104.231 E3.90633
G1 X85.4 Y104.231 E.02914
G1 X154.228 Y173.059 E3.94754
G1 X154.228 Y173.777 E.02914
G1 X84.682 Y104.231 E3.98875
G1 X83.963 Y104.231 E.02914
G1 X154.228 Y174.496 E4.02996
G1 X154.228 Y175.214 E.02914
G1 X83.245 Y104.231 E4.07117
G1 X82.526 Y104.231 E.02914
G1 X154.228 Y175.933 E4.11237
G1 X154.228 Y176.651 E.02914
G1 X82.061 Y104.485 E4.13902
M73 P2 R78
G1 X82.061 Y105.203 E.02914
G1 X154.228 Y177.37 E4.13902
G1 X154.228 Y178.088 E.02914
G1 X82.061 Y105.922 E4.13902
G1 X82.061 Y106.64 E.02914
G1 X154.228 Y178.807 E4.13902
G1 X154.228 Y179.525 E.02914
G1 X82.061 Y107.359 E4.13902
G1 X82.061 Y108.077 E.02914
G1 X154.228 Y180.244 E4.13902
G1 X154.228 Y180.962 E.02914
G1 X82.061 Y108.796 E4.13902
G1 X82.061 Y109.514 E.02914
G1 X154.228 Y181.681 E4.13902
G1 X154.228 Y182.399 E.02914
G1 X82.061 Y110.233 E4.13902
G1 X82.061 Y110.951 E.02914
G1 X154.228 Y183.118 E4.13902
G1 X154.228 Y183.836 E.02914
G1 X82.061 Y111.67 E4.13902
G1 X82.061 Y112.388 E.02914
G1 X154.228 Y184.555 E4.13902
G1 X154.228 Y185.273 E.02914
G1 X82.061 Y113.107 E4.13902
G1 X82.061 Y113.825 E.02914
G1 X154.228 Y185.992 E4.13902
G1 X154.228 Y186.71 E.02914
G1 X82.061 Y114.544 E4.13902
G1 X82.061 Y115.262 E.02914
G1 X154.228 Y187.429 E4.13902
G1 X154.228 Y188.147 E.02914
G1 X82.061 Y115.981 E4.13902
G1 X82.061 Y116.699 E.02914
G1 X154.228 Y188.866 E4.13902
G1 X154.228 Y189.584 E.02914
G1 X82.061 Y117.418 E4.13902
G1 X82.061 Y118.136 E.02914
G1 X154.228 Y190.303 E4.13902
G1 X154.228 Y191.021 E.02914
G1 X82.061 Y118.855 E4.13902
G1 X82.061 Y119.573 E.02914
G1 X154.228 Y191.74 E4.13902
G1 X154.228 Y192.458 E.02914
G1 X82.061 Y120.292 E4.13902
G1 X82.061 Y121.01 E.02914
G1 X154.228 Y193.177 E4.13902
M73 P2 R77
G1 X154.228 Y193.895 E.02914
G1 X82.061 Y121.729 E4.13902
G1 X82.061 Y122.447 E.02914
G1 X154.228 Y194.614 E4.13902
G1 X154.228 Y195.332 E.02914
G1 X82.061 Y123.166 E4.13902
G1 X82.061 Y123.884 E.02914
G1 X154.228 Y196.051 E4.13902
G1 X154.228 Y196.769 E.02914
G1 X82.061 Y124.603 E4.13902
G1 X82.061 Y125.321 E.02914
G1 X154.228 Y197.488 E4.13902
G1 X154.228 Y197.742 E.01029
G1 X153.763 Y197.742 E.01885
G1 X82.061 Y126.04 E4.11237
G1 X82.061 Y126.758 E.02914
G1 X153.045 Y197.742 E4.07116
G1 X152.326 Y197.742 E.02914
G1 X82.061 Y127.477 E4.02995
G1 X82.061 Y128.195 E.02914
G1 X151.608 Y197.742 E3.98874
G1 X150.889 Y197.742 E.02914
G1 X82.061 Y128.914 E3.94754
G1 X82.061 Y129.632 E.02914
G1 X150.171 Y197.742 E3.90633
G1 X149.452 Y197.742 E.02914
G1 X82.061 Y130.351 E3.86512
G1 X82.061 Y131.069 E.02914
G1 X148.734 Y197.742 E3.82391
G1 X148.015 Y197.742 E.02914
G1 X82.061 Y131.788 E3.7827
G1 X82.061 Y132.506 E.02914
G1 X147.297 Y197.742 E3.74149
G1 X146.579 Y197.742 E.02914
G1 X82.061 Y133.225 E3.70029
G1 X82.061 Y133.943 E.02914
G1 X145.86 Y197.742 E3.65908
G1 X145.142 Y197.742 E.02914
G1 X82.061 Y134.662 E3.61787
G1 X82.061 Y135.38 E.02914
G1 X144.423 Y197.742 E3.57666
G1 X143.705 Y197.742 E.02914
G1 X82.061 Y136.099 E3.53545
G1 X82.061 Y136.817 E.02914
