; HEADER_BLOCK_START
; generated by Creality_Print V7.1.1.4472 on 2026-06-26 at 15:31:59
; total layer number: 24
; filament_density: 1.24
; filament_diameter: 1.75
; max_z_height: 4.80
; creality_uuid: 51e87841-9689-42d8-85be-2204802277b9
; HEADER_BLOCK_END

; MINX = 100.00
; MINY = 84.07
; MINZ = 0.00
; MAXX = 200.00
; MAXY = 215.93
; MAXZ = 4.80

; multicolor_method = 0 
; THUMBNAIL_BLOCK_START

;
; THUMBNAIL_BLOCK_END

; THUMBNAIL_BLOCK_START

;
; THUMBNAIL_BLOCK_END

; external perimeters extrusion width = 0.42mm
; perimeters extrusion width = 0.45mm
; infill extrusion width = 0.45mm
; solid infill extrusion width = 0.42mm
; top infill extrusion width = 0.42mm
; first layer extrusion width = 0.55mm

; EXECUTABLE_BLOCK_START
EXCLUDE_OBJECT_DEFINE NAME=Controller_box_close.stl_id_0_copy_0 CENTER=150,150 POLYGON=[[100,84.0742],[200,84.0742],[200,215.926],[100,215.926],[100,84.0742]]
M73 P0 R46
M106 S0
M106 P2 S0
; max_print_temp = 65,220
;TYPE:Custom
M140 S0
M104 S0
START_PRINT EXTRUDER_TEMP=220 BED_TEMP=65
G90
G21
M83 ; use relative distances for extrusion
;filament start gcode
G1 E-.6 F2400
G1 Z.2 F30000
M106 S0
;LAYER_CHANGE
;:0.2
;HEIGHT:0.2
;BEFORE_LAYER_CHANGE
;0.2
G92 E0
;TIME_ELAPSED:59.692150
;AFTER_LAYER_CHANGE
;0.2
;_SET_FAN_SPEED_CHANGING_LAYER
SET_VELOCITY_LIMIT ACCEL=2000 ACCEL_TO_DECEL=500
SET_VELOCITY_LIMIT SQUARE_CORNER_VELOCITY=8
; OBJECT_ID: 170
; printing object Controller_box_close.stl id:0 copy 0
EXCLUDE_OBJECT_START NAME=Controller_box_close.stl_id_0_copy_0
G1 X198.107 Y150.082 Z.4 F30000
G1 Z.2
G1 E.6 F2400
;TYPE:Inner wall
;WIDTH:0.549999
G1 F3600
G1 X197.626 Y149.678 E.02544
G2 X194.637 Y149.285 I-1.898 J2.874 E.12626
G1 X193.954 Y149.602 E.03051
G2 X192.846 Y150.711 I2.21 J3.314 E.06384
G2 X192.426 Y151.751 I3.967 J2.208 E.04552
G2 X194.247 Y155.53 I3.324 J.727 E.18298
G1 X194.838 Y155.761 E.02569
G1 X195.504 Y155.867 E.02729
G2 X197.626 Y155.298 I.192 J-3.527 E.0904
G1 X198.107 Y154.892 E.02552
G1 X198.107 Y209.36 E2.20473
G2 X194.493 Y208.418 I-2.529 J2.298 E.15996
G1 X193.809 Y208.735 E.03051
G2 X192.549 Y210.133 I1.889 J2.969 E.0771
G1 X192.318 Y210.724 E.02569
G1 X192.212 Y211.39 E.02729
G2 X192.781 Y213.512 I3.527 J.192 E.0904
G1 X193.228 Y214.033 E.02781
G1 X106.555 Y214.033 E3.5083
G1 X106.954 Y213.556 E.02517
G2 X107.347 Y210.568 I-2.874 J-1.898 E.12627
G1 X107.03 Y209.884 E.03051
G2 X105.632 Y208.624 I-2.969 J1.889 E.0771
G1 X105.041 Y208.393 E.02569
G1 X104.375 Y208.288 E.02729
G2 X101.893 Y209.139 I-.232 J3.369 E.10912
G1 X101.893 Y90.718 E4.79336
G1 X102.531 Y91.132 E.03079
G2 X104.251 Y91.469 I1.489 J-3.042 E.07177
G1 X104.917 Y91.363 E.02729
G1 X105.508 Y91.132 E.02569
G1 X105.91 Y90.9 E.01875
G1 X106.493 Y90.412 E.03081
G2 X107.398 Y87.858 I-2.561 J-2.345 E.11263
G2 X107.062 Y86.602 I-3.848 J.358 E.05292
G1 X106.651 Y85.967 E.0306
G1 X198.107 Y85.967 E3.70191
G1 X198.107 Y150.042 E2.59359
;WIPE_START
G1 X197.626 Y149.678 E-.17205
G1 X197.224 Y149.447 E-.13204
G1 X196.834 Y149.285 E-.12045
G1 X196.386 Y149.165 E-.13205
G1 X196.34 Y149.159 E-.01341
;WIPE_END
G1 E-.03 F2400
G1 X198.508 Y151.678 Z.4 F30000
G1 Z.2
G1 E.6 F2400
;WIDTH:0.583019
G1 F3600
G1 X198.474 Y151.583 E.00437
;WIDTH:0.557668
G1 X198.143 Y150.907 E.03091
;WIDTH:0.549999
G1 X197.652 Y150.338 E.03044
G1 X197.03 Y149.915 E.03044
G1 X196.32 Y149.668 E.03044
G1 X195.57 Y149.613 E.03044
G1 X194.975 Y149.704 E.02438
G1 X194.441 Y149.915 E.02324
G1 X194.154 Y150.081 E.01339
G1 X193.641 Y150.504 E.02692
G2 X193.162 Y151.194 I2.265 J2.083 E.03411
G1 X192.929 Y151.821 E.0271
G2 X192.86 Y152.654 I3 J.667 E.03393
G1 X192.971 Y153.314 E.0271
G2 X193.328 Y154.07 I2.931 J-.922 E.03392
G1 X193.716 Y154.551 E.02504
G1 X194.154 Y154.896 E.02257
G1 X194.441 Y155.062 E.0134
G1 X194.975 Y155.273 E.02324
G1 X195.57 Y155.364 E.02438
G1 X196.32 Y155.309 E.03044
G1 X197.03 Y155.062 E.03044
G1 X197.652 Y154.639 E.03044
G1 X197.901 Y154.385 E.01441
G1 X198.322 Y153.751 E.03081
;WIDTH:0.583421
G1 X198.452 Y153.441 E.01446
;WIDTH:0.616842
G1 X198.581 Y153.132 E.01535
G1 X198.598 Y153.47 E.01551
;WIDTH:0.583421
G1 X198.614 Y153.809 E.01461
;WIDTH:0.549999
G1 X198.621 Y210.66 E2.30119
;WIDTH:0.537451
G1 X198.644 Y210.781 E.00487
;WIDTH:0.49108
G1 X198.667 Y210.903 E.00442
;WIDTH:0.444709
G1 X198.69 Y211.024 E.00396
;WIDTH:0.398338
G1 X198.707 Y211.622 E.01697
;WIDTH:0.402811
G1 X198.688 Y212.278 E.01887
;WIDTH:0.451874
G1 X198.663 Y212.509 E.00758
;WIDTH:0.500937
G1 X198.639 Y212.74 E.00849
;WIDTH:0.549999
G1 X198.614 Y212.971 E.0094
G1 X198.614 Y214.54 E.06353
G1 X196.954 Y214.54 E.0672
;WIDTH:0.58564
G1 X196.715 Y214.522 E.01037
;WIDTH:0.62128
G1 X196.477 Y214.505 E.01105
;WIDTH:0.65692
G1 X196.238 Y214.487 E.01173
G1 X196.454 Y214.389 E.0116
;WIDTH:0.62128
G1 X196.67 Y214.292 E.01093
;WIDTH:0.58564
G1 X196.885 Y214.195 E.01025
;WIDTH:0.549999
G1 X197.507 Y213.772 E.03044
G1 X197.757 Y213.518 E.01441
G1 X198.178 Y212.884 E.03081
G1 X198.31 Y212.519 E.0157
;WIDTH:0.516217
G1 X198.319 Y212.412 E.00408
;WIDTH:0.476924
G1 X198.328 Y212.304 E.00374
;WIDTH:0.437631
G1 X198.336 Y212.196 E.0034
;WIDTH:0.398338
G1 X198.378 Y211.468 E.0207
;WIDTH:0.412341
G1 X198.363 Y211.281 E.00553
;WIDTH:0.454044
G1 X198.349 Y211.094 E.00615
;WIDTH:0.495748
G1 X198.334 Y210.907 E.00678
;WIDTH:0.537451
G1 X198.32 Y210.72 E.0074
;WIDTH:0.549999
G2 X197.999 Y210.04 I-2.475 J.755 E.03053
G1 X197.507 Y209.471 E.03044
G1 X196.885 Y209.048 E.03044
G1 X196.175 Y208.801 E.03044
G1 X195.425 Y208.746 E.03044
G1 X194.83 Y208.837 E.02438
G1 X194.296 Y209.048 E.02324
G1 X194.01 Y209.214 E.0134
G1 X193.518 Y209.614 E.02567
G2 X192.806 Y210.861 I2.404 J2.197 E.05859
G1 X192.715 Y211.456 E.02438
G1 X192.77 Y212.206 E.03044
G1 X193.018 Y212.916 E.03044
G1 X193.44 Y213.538 E.03044
G1 X193.695 Y213.787 E.01441
G1 X194.329 Y214.208 E.03081
;WIDTH:0.599158
G1 X194.664 Y214.35 E.01617
;WIDTH:0.648316
G1 X195 Y214.491 E.0176
G1 X194.631 Y214.516 E.01785
;WIDTH:0.599158
G1 X194.263 Y214.54 E.0164
;WIDTH:0.549999
G1 X105.498 Y214.54 E3.59294
;WIDTH:0.581033
G1 X105.143 Y214.525 E.01528
;WIDTH:0.612066
G1 X104.787 Y214.509 E.01617
G1 X105.113 Y214.374 E.01601
;WIDTH:0.581033
G1 X105.438 Y214.239 E.01514
;WIDTH:0.549999
G1 X106.06 Y213.817 E.03044
G1 X106.552 Y213.247 E.03044
G1 X106.879 Y212.57 E.03044
G1 X107.02 Y211.832 E.03044
G1 X106.964 Y211.082 E.03044
G1 X106.879 Y210.762 E.0134
G1 X106.606 Y210.162 E.02668
G2 X106.06 Y209.516 I-2.605 J1.647 E.03435
G1 X105.554 Y209.148 E.02533
G1 X105.048 Y208.931 E.02228
G1 X104.728 Y208.846 E.0134
G1 X103.978 Y208.79 E.03044
G1 X103.24 Y208.931 E.03044
G1 X102.563 Y209.258 E.03044
G1 X101.993 Y209.75 E.03044
G1 X101.571 Y210.372 E.03044
G1 X101.414 Y210.764 E.01711
;WIDTH:0.53921
G1 X101.384 Y210.925 E.00648
;WIDTH:0.513233
G1 X101.354 Y211.086 E.00614
;WIDTH:0.518628
G1 X101.37 Y210.71 E.01427
;WIDTH:0.549999
G1 X101.386 Y210.335 E.01521
G1 X101.386 Y89.238 E4.90168
G1 X101.612 Y89.671 E.0198
G1 X102.103 Y90.241 E.03044
G1 X102.725 Y90.663 E.03044
G1 X103.435 Y90.911 E.03044
G1 X104.185 Y90.966 E.03044
G1 X104.781 Y90.875 E.02438
G1 X105.314 Y90.663 E.02324
G1 X105.601 Y90.498 E.0134
G1 X106.114 Y90.075 E.02689
G2 X106.896 Y88.256 I-2.17 J-2.01 E.08175
G1 X106.84 Y87.506 E.03044
G1 X106.593 Y86.796 E.03044
G1 X106.17 Y86.174 E.03044
G1 X105.601 Y85.682 E.03044
G1 X105.176 Y85.46 E.0194
G1 X198.614 Y85.46 E3.78211
G1 X198.614 Y151.133 E2.65827
;WIDTH:0.579185
G1 X198.6 Y151.517 E.01643
;WIDTH:0.60837
G1 X198.585 Y151.9 E.01732
G1 X198.53 Y151.741 E.00759
;WIDTH:0.583019
G1 X198.521 Y151.716 E.00115
G1 X198.033 Y151.958 F30000
;WIDTH:0.549999
G1 F3600
G1 X198.109 Y152.389 E.01772
G1 X198.054 Y153.007 E.0251
G1 X197.854 Y153.556 E.02368
G1 X197.493 Y154.084 E.02587
G1 X197.008 Y154.494 E.02569
G1 X196.446 Y154.755 E.0251
G1 X195.835 Y154.861 E.0251
G1 X195.217 Y154.806 E.0251
G1 X194.635 Y154.593 E.0251
G1 X194.128 Y154.237 E.0251
G1 X193.73 Y153.761 E.0251
G1 X193.469 Y153.198 E.0251
G1 X193.363 Y152.588 E.0251
G1 X193.418 Y151.97 E.0251
G1 X193.659 Y151.328 E.02778
M73 P0 R45
G1 X193.987 Y150.881 E.02246
G1 X194.463 Y150.483 E.0251
G1 X195.026 Y150.222 E.0251
G1 X195.636 Y150.115 E.0251
G1 X196.254 Y150.17 E.0251
G1 X196.836 Y150.384 E.0251
G1 X197.343 Y150.74 E.0251
G1 X197.741 Y151.216 E.0251
G1 X198.002 Y151.778 E.0251
G1 X198.027 Y151.918 E.00576
G1 X197.521 Y152.018 F30000
;TYPE:Outer wall
G1 F3600
G1 X197.53 Y152.039 E.00093
G1 X197.585 Y152.519 E.01954
G1 X197.514 Y152.996 E.01954
G1 X197.338 Y153.403 E.01794
G1 X197.022 Y153.817 E.0211
G1 X196.634 Y154.105 E.01954
G1 X196.185 Y154.282 E.01954
G1 X195.705 Y154.337 E.01954
G1 X195.228 Y154.267 E.01954
G1 X194.785 Y154.075 E.01954
G1 X194.407 Y153.774 E.01954
G1 X194.119 Y153.387 E.01954
G1 X193.942 Y152.938 E.01954
G1 X193.887 Y152.458 E.01954
G1 X193.956 Y151.984 E.01939
G1 X194.149 Y151.538 E.01969
G1 X194.45 Y151.159 E.01954
G1 X194.837 Y150.872 E.01954
G1 X195.286 Y150.694 E.01954
G1 X195.766 Y150.639 E.01954
G1 X196.243 Y150.71 E.01954
G1 X196.686 Y150.902 E.01954
G1 X197.065 Y151.202 E.01954
G1 X197.352 Y151.59 E.01954
G1 X197.506 Y151.98 E.01699
;WIPE_START
G1 X197.53 Y152.039 E-.01796
G1 X197.585 Y152.519 E-.13759
G1 X197.514 Y152.996 E-.13759
G1 X197.338 Y153.403 E-.1263
G1 X197.022 Y153.817 E-.14855
G1 X197.016 Y153.821 E-.00201
;WIPE_END
G1 E-.03 F2400
G1 X198.585 Y151.9 Z.4 F30000
G1 Z.2
G1 E.6 F2400
;TYPE:Inner wall
;WIDTH:0.60837
G1 F3600
G1 X198.602 Y152.194 E.0133
;WIDTH:0.575239
G3 X198.602 Y152.783 I-2.603 J.294 E.02505
;WIDTH:0.60837
G1 X198.585 Y153.077 E.0133
;WIDTH:0.616842
G1 X198.581 Y153.132 E.00255
;WIPE_START
G1 X198.585 Y153.077 E-.02572
G1 X198.602 Y152.783 E-.13607
G1 X198.618 Y152.488 E-.13607
G1 X198.602 Y152.194 E-.13607
G1 X198.585 Y151.9 E-.13607
;WIPE_END
G1 E-.03 F2400
G1 X198.314 Y155.707 Z.4 F30000
G1 X194.478 Y209.542 Z.4
G1 Z.2
G1 E.6 F2400
;WIDTH:0.549999
G1 F3600
G1 X194.881 Y209.355 E.01799
G1 X195.492 Y209.249 E.0251
G1 X196.109 Y209.304 E.0251
G1 X196.691 Y209.517 E.0251
G1 X197.199 Y209.873 E.0251
G1 X197.596 Y210.349 E.0251
G1 X197.857 Y210.912 E.0251
G1 X197.964 Y211.522 E.0251
G1 X197.909 Y212.14 E.0251
G1 X197.709 Y212.69 E.02368
G1 X197.348 Y213.217 E.02587
G1 X196.863 Y213.627 E.02569
G1 X196.301 Y213.888 E.0251
G1 X195.69 Y213.995 E.0251
G1 X195.073 Y213.94 E.0251
G1 X194.523 Y213.74 E.02368
G1 X193.995 Y213.379 E.02587
G1 X193.585 Y212.894 E.02569
G1 X193.324 Y212.332 E.0251
G1 X193.218 Y211.721 E.0251
G1 X193.273 Y211.103 E.0251
G1 X193.486 Y210.521 E.0251
G1 X193.843 Y210.014 E.0251
G1 X194.318 Y209.616 E.0251
G1 X194.441 Y209.559 E.00549
G1 X194.693 Y210.005 F30000
;TYPE:Outer wall
G1 F3600
G1 X195.142 Y209.828 E.01954
G1 X195.621 Y209.773 E.01954
G1 X196.099 Y209.844 E.01954
G1 X196.542 Y210.036 E.01954
G1 X196.92 Y210.336 E.01954
G1 X197.207 Y210.723 E.01954
G1 X197.385 Y211.172 E.01954
G1 X197.44 Y211.652 E.01954
G1 X197.369 Y212.13 E.01954
G1 X197.193 Y212.536 E.01794
G1 X196.877 Y212.951 E.0211
G1 X196.489 Y213.238 E.01954
G1 X196.04 Y213.416 E.01954
G1 X195.561 Y213.471 E.01954
G1 X195.083 Y213.4 E.01954
G1 X194.676 Y213.224 E.01794
G1 X194.262 Y212.908 E.0211
G1 X193.974 Y212.52 E.01954
G1 X193.797 Y212.071 E.01954
G1 X193.742 Y211.591 E.01954
G1 X193.804 Y211.14 E.01844
G1 X194.005 Y210.671 E.02066
G1 X194.305 Y210.293 E.01954
G1 X194.66 Y210.029 E.01792
;WIPE_START
G1 X195.142 Y209.828 E-.14863
G1 X195.621 Y209.773 E-.13759
G1 X196.099 Y209.844 E-.13759
G1 X196.542 Y210.036 E-.13758
G1 X196.565 Y210.054 E-.00861
;WIPE_END
G1 E-.03 F2400
G1 X196.284 Y213.86 Z.4 F30000
G1 X196.238 Y214.487 Z.4
G1 Z.2
G1 E.6 F2400
;TYPE:Inner wall
;WIDTH:0.65692
G1 F3600
G1 X195.915 Y214.506 E.01589
;WIDTH:0.619401
G1 X195.591 Y214.524 E.01492
;WIDTH:0.615099
G1 X195.295 Y214.508 E.01352
;WIDTH:0.648316
G1 X195 Y214.491 E.0143
;WIPE_START
G1 X195.295 Y214.508 E-.136
G1 X195.591 Y214.524 E-.136
G1 X195.915 Y214.506 E-.149
G1 X196.238 Y214.487 E-.149
;WIPE_END
G1 E-.03 F2400
G1 X198.106 Y213.932 Z.4 F30000
G1 Z.2
G1 E.6 F2400
;WIDTH:0.626496
G1 F3600
G2 X198.142 Y213.995 I-.032 J.061 E.01645
;WIPE_START
G1 X198.106 Y214.058 E-.114
G1 X198.033 Y214.058 E-.114
G1 X197.996 Y213.995 E-.114
G1 X198.033 Y213.932 E-.114
G1 X198.106 Y213.932 E-.114
;WIPE_END
G1 E-.03 F2400
G1 X194.29 Y213.867 Z.4 F30000
G1 X101.358 Y212.3 Z.4
G1 Z.2
G1 E.6 F2400
;WIDTH:0.533357
G1 F3600
G1 X101.416 Y212.567 E.01072
;WIDTH:0.549999
G1 X101.571 Y212.961 E.01711
G1 X101.993 Y213.583 E.03044
G1 X102.247 Y213.832 E.01441
G1 X102.882 Y214.253 E.03081
;WIDTH:0.576804
G1 X103.219 Y214.383 E.0154
;WIDTH:0.603608
G1 X103.556 Y214.513 E.01617
G1 X103.19 Y214.527 E.01638
;WIDTH:0.576804
G1 X102.824 Y214.54 E.01559
;WIDTH:0.549999
G1 X101.386 Y214.54 E.05824
G1 X101.372 Y212.649 E.07657
;WIDTH:0.522667
G1 X101.36 Y212.339 E.01184
;WIPE_START
G1 X101.416 Y212.567 E-.06686
G1 X101.571 Y212.961 E-.12047
G1 X101.993 Y213.583 E-.21431
G1 X102.247 Y213.832 E-.10143
G1 X102.443 Y213.962 E-.06692
;WIPE_END
G1 E-.03 F2400
G1 X101.866 Y214.042 Z.4 F30000
G1 Z.2
G1 E.6 F2400
;WIDTH:0.44533
G1 F3600
G2 X101.891 Y214.085 I-.022 J.042 E.00782
;WIPE_START
G1 X101.866 Y214.129 E-.114
G1 X101.815 Y214.129 E-.114
G1 X101.79 Y214.085 E-.114
G1 X101.815 Y214.042 E-.114
G1 X101.866 Y214.042 E-.114
;WIPE_END
G1 E-.03 F2400
G1 X103.202 Y210.467 Z.4 F30000
G1 X103.613 Y209.368 Z.4
G1 Z.2
G1 E.6 F2400
;WIDTH:0.549999
G1 F3600
G1 X104.044 Y209.293 E.01772
G1 X104.662 Y209.348 E.0251
G1 X105.244 Y209.561 E.0251
G1 X105.752 Y209.918 E.0251
G1 X106.149 Y210.394 E.0251
G1 X106.41 Y210.956 E.0251
G1 X106.517 Y211.567 E.0251
G1 X106.462 Y212.184 E.0251
G1 X106.249 Y212.767 E.0251
G1 X105.892 Y213.274 E.0251
G1 X105.416 Y213.672 E.0251
G1 X104.854 Y213.933 E.0251
G1 X104.243 Y214.039 E.0251
G1 X103.625 Y213.984 E.0251
G1 X103.076 Y213.784 E.02368
G1 X102.548 Y213.423 E.02587
G1 X102.138 Y212.939 E.02569
G1 X101.877 Y212.376 E.0251
G1 X101.771 Y211.765 E.0251
G1 X101.826 Y211.148 E.0251
G1 X102.039 Y210.566 E.0251
G1 X102.396 Y210.058 E.0251
G1 X102.871 Y209.661 E.0251
G1 X103.434 Y209.4 E.0251
G1 X103.574 Y209.375 E.00576
G1 X103.671 Y209.882 F30000
;TYPE:Outer wall
G1 F3600
G1 X103.694 Y209.872 E.00102
G1 X104.174 Y209.817 E.01954
G1 X104.652 Y209.888 E.01954
G1 X105.095 Y210.08 E.01954
G1 X105.473 Y210.38 E.01954
G1 X105.76 Y210.768 E.01954
G1 X105.938 Y211.217 E.01954
G1 X105.993 Y211.696 E.01954
G1 X105.922 Y212.174 E.01954
G1 X105.73 Y212.617 E.01954
G1 X105.43 Y212.995 E.01954
G1 X105.042 Y213.283 E.01954
G1 X104.593 Y213.46 E.01954
G1 X104.113 Y213.515 E.01954
G1 X103.636 Y213.444 E.01954
G1 X103.229 Y213.269 E.01794
G1 X102.815 Y212.952 E.0211
G1 X102.527 Y212.564 E.01954
G1 X102.35 Y212.116 E.01954
G1 X102.295 Y211.636 E.01954
G1 X102.366 Y211.158 E.01954
G1 X102.558 Y210.715 E.01954
G1 X102.858 Y210.337 E.01954
G1 X103.193 Y210.08 E.01711
G1 X103.634 Y209.897 E.01933
;WIPE_START
G1 X103.694 Y209.872 E-.01858
G1 X104.174 Y209.817 E-.13758
G1 X104.652 Y209.888 E-.13759
G1 X105.095 Y210.08 E-.13759
G1 X105.473 Y210.38 E-.13759
G1 X105.475 Y210.383 E-.00108
;WIPE_END
G1 E-.03 F2400
G1 X102.015 Y211.994 Z.4 F30000
G1 X101.358 Y212.3 Z.4
G1 Z.2
G1 E.6 F2400
;TYPE:Inner wall
;WIDTH:0.495334
G1 F3600
G1 X101.34 Y211.983 E.01146
;WIDTH:0.458424
G1 X101.321 Y211.666 E.01052
;WIDTH:0.454385
G1 X101.338 Y211.376 E.00955
;WIDTH:0.487256
G1 X101.354 Y211.086 E.01031
;WIPE_START
G1 X101.338 Y211.376 E-.13628
G1 X101.321 Y211.666 E-.13628
G1 X101.34 Y211.983 E-.14872
G1 X101.358 Y212.3 E-.14872
;WIPE_END
G1 E-.03 F2400
G1 X104.566 Y214.367 Z.4 F30000
G1 X104.787 Y214.509 Z.4
G1 Z.2
G1 E.6 F2400
;WIDTH:0.612066
G1 F3600
G1 X104.465 Y214.528 E.01464
;WIDTH:0.574718
G1 X104.144 Y214.547 E.01368
;WIDTH:0.570489
G1 X103.85 Y214.53 E.0124
;WIDTH:0.603608
G1 X103.556 Y214.513 E.01318
;WIPE_START
G1 X103.85 Y214.53 E-.13608
G1 X104.144 Y214.547 E-.13608
G1 X104.465 Y214.528 E-.14892
G1 X104.787 Y214.509 E-.14892
;WIPE_END
G1 E-.03 F2400
G1 X104.687 Y210.694 Z.4 F30000
G1 X101.432 Y86.729 Z.4
G1 Z.2
G1 E.6 F2400
;WIDTH:0.642717
G1 F3600
G1 X101.432 Y85.506 E.05854
G1 X102.652 Y85.506 E.05841
